emotes/face-kiss.svg

<?xml version="1.0" encoding="UTF-8" standalone="no"?>
<svg
   xmlns:dc="http://purl.org/dc/elements/1.1/"
   xmlns:cc="http://creativecommons.org/ns#"
   xmlns:rdf="http://www.w3.org/1999/02/22-rdf-syntax-ns#"
   xmlns:svg="http://www.w3.org/2000/svg"
   xmlns="http://www.w3.org/2000/svg"
   xmlns:sodipodi="http://sodipodi.sourceforge.net/DTD/sodipodi-0.dtd"
   xmlns:inkscape="http://www.inkscape.org/namespaces/inkscape"
   width="2048"
   height="2048"
   viewBox="-256 -384 2048 2048"
   id="svg2"
   version="1.1"
   inkscape:version="0.48.4 r9939"
   sodipodi:docname="face-kiss.svg">
  <metadata
     id="metadata12">
    <rdf:RDF>
      <cc:Work
         rdf:about="">
        <dc:format>image/svg+xml</dc:format>
        <dc:type
           rdf:resource="http://purl.org/dc/dcmitype/StillImage" />
        <dc:title />
      </cc:Work>
    </rdf:RDF>
  </metadata>
  <defs
     id="defs10" />
  <sodipodi:namedview
     pagecolor="#ffffff"
     bordercolor="#666666"
     borderopacity="1"
     objecttolerance="10"
     gridtolerance="10"
     guidetolerance="10"
     inkscape:pageopacity="0"
     inkscape:pageshadow="2"
     inkscape:window-width="1859"
     inkscape:window-height="1048"
     id="namedview8"
     showgrid="false"
     inkscape:zoom="0.22627417"
     inkscape:cx="444.93204"
     inkscape:cy="1024"
     inkscape:window-x="-8"
     inkscape:window-y="-3"
     inkscape:window-maximized="1"
     inkscape:current-layer="svg2" />
  <g
     transform="scale(1 -1) translate(0 -1280)"
     id="g4">
    <path
       style="fill:#000000"
       d="M 1024,256 C 884.66667,256 756.16667,290.3333 638.5,359 520.83333,427.6667 427.66667,520.8333 359,638.5 290.33333,756.16667 256,884.66667 256,1024 c 0,139.3333 34.33333,267.8333 103,385.5 68.66667,117.6667 161.83333,210.8333 279.5,279.5 117.66667,68.6667 246.16667,103 385.5,103 139.3333,0 267.8333,-34.3333 385.5,-103 117.6667,-68.6667 210.8333,-161.8333 279.5,-279.5 68.6667,-117.6667 103,-246.1667 103,-385.5 0,-139.33333 -34.3333,-267.83333 -103,-385.5 C 1620.3333,520.8333 1527.1667,427.6667 1409.5,359 1291.8333,290.3333 1163.3333,256 1024,256 z m 0,128 c 86.6667,0 169.5,17 248.5,51 79,34 147,79.5 204,136.5 57,57 102.5,125 136.5,204 34,79 51,161.83333 51,248.5 0,86.6667 -17,169.5 -51,248.5 -34,79 -79.5,147 -136.5,204 -57,57 -125,102.5 -204,136.5 -79,34 -161.8333,51 -248.5,51 -86.66667,0 -169.5,-17 -248.5,-51 -79,-34 -147,-79.5 -204,-136.5 -57,-57 -102.5,-125 -136.5,-204 -34,-79 -51,-161.8333 -51,-248.5 0,-86.66667 17,-169.5 51,-248.5 34,-79 79.5,-147 136.5,-204 57,-57 125,-102.5 204,-136.5 79,-34 161.83333,-51 248.5,-51 z M 768,640 c -35.33333,0 -65.5,12.5 -90.5,37.5 -25,25 -37.5,55.16667 -37.5,90.5 0,35.33333 12.5,65.5 37.5,90.5 25,25 55.16667,37.5 90.5,37.5 35.33333,0 65.5,-12.5 90.5,-37.5 25,-25 37.5,-55.16667 37.5,-90.5 0,-35.33333 -12.5,-65.5 -37.5,-90.5 -25,-25 -55.16667,-37.5 -90.5,-37.5 z m 512,0 c -35.3333,0 -65.5,12.5 -90.5,37.5 -25,25 -37.5,55.16667 -37.5,90.5 0,35.33333 12.5,65.5 37.5,90.5 25,25 55.1667,37.5 90.5,37.5 35.3333,0 65.5,-12.5 90.5,-37.5 25,-25 37.5,-55.16667 37.5,-90.5 0,-35.33333 -12.5,-65.5 -37.5,-90.5 -25,-25 -55.1667,-37.5 -90.5,-37.5 z"
       transform="matrix(1,0,0,-1,-256,1664)"
       id="path6"
       inkscape:connector-curvature="0"
       sodipodi:nodetypes="ssssssssssssssssssssssssssssssssssssssssssssssss" />
  </g>
  <g
     transform="matrix(0.28242954,0,0,-0.28242954,533.01857,1083.8057)"
     id="g4-7" />
  <g
     transform="matrix(0.89326685,0,0,-0.89326685,-3437.3187,1033.006)"
     id="g4-0">
    <path
       style="fill:#000000"
       inkscape:connector-curvature="0"
       d="m 4998.3436,54.652195 -86.2115,-86.211536 c -3.9366,-3.936601 -8.4637,-5.9049 -13.5813,-5.9049 -5.1176,0 -8.5171,3.592578 -13.5813,5.9049 l -177.1729,80.897126 -170.456,-80.897126 c -5.0295,-2.386947 -8.4637,-5.9049 -13.5813,-5.9049 -5.1176,0 -9.6447,1.968299 -13.5813,5.9049 l -86.2115,86.211536 c -3.9366,3.936602 -5.9049,8.463689 -5.9049,13.58127 0,5.117583 0.8754,11.194324 5.9049,13.581271 l 170.456,80.897124 -168.217,80.89714 c -5.0172,2.41282 -5.9049,8.46369 -5.9049,13.58127 0,5.11758 1.9683,9.64467 5.9049,13.58127 l 86.2115,86.21154 c 3.9366,3.9366 8.4637,5.9049 13.5813,5.9049 5.1176,0 8.5641,-3.49208 13.5813,-5.9049 l 168.217,-80.89713 172.695,80.89713 c 5.0415,2.3616 8.4637,5.9049 13.5813,5.9049 5.1176,0 9.6447,-1.9683 13.5813,-5.9049 l 86.2115,-86.21154 c 3.9366,-3.93655 5.9049,-8.46369 5.9049,-13.58127 0,-5.11758 -0.8634,-11.21967 -5.9049,-13.58127 l -172.695,-80.89714 177.1729,-80.897124 c 5.0642,-2.312322 5.9049,-8.463688 5.9049,-13.581271 0,-5.117581 -1.9683,-9.644668 -5.9049,-13.58127 z"
       id="path6-3"
       sodipodi:nodetypes="sssscsssssscsssssscsssssscsss" />
  </g>
</svg>

<?xml version="1.0" encoding="UTF-8" standalone="no"?>
<svg
   xmlns:dc="http://purl.org/dc/elements/1.1/"
   xmlns:cc="http://creativecommons.org/ns#"
   xmlns:rdf="http://www.w3.org/1999/02/22-rdf-syntax-ns#"
   xmlns:svg="http://www.w3.org/2000/svg"
   xmlns="http://www.w3.org/2000/svg"
   xmlns:sodipodi="http://sodipodi.sourceforge.net/DTD/sodipodi-0.dtd"
   xmlns:inkscape="http://www.inkscape.org/namespaces/inkscape"
   width="2048"
   height="2048"
   viewBox="-256 -384 2048 2048"
   id="svg2"
   version="1.1"
   inkscape:version="0.48.4 r9939"
   sodipodi:docname="face-kiss.svg">
  <metadata
     id="metadata12">
    <rdf:RDF>
      <cc:Work
         rdf:about="">
        <dc:format>image/svg+xml</dc:format>
        <dc:type
           rdf:resource="http://purl.org/dc/dcmitype/StillImage" />
        <dc:title />
      </cc:Work>
    </rdf:RDF>
  </metadata>
  <defs
     id="defs10" />
  <sodipodi:namedview
     pagecolor="#ffffff"
     bordercolor="#666666"
     borderopacity="1"
     objecttolerance="10"
     gridtolerance="10"
     guidetolerance="10"
     inkscape:pageopacity="0"
     inkscape:pageshadow="2"
     inkscape:window-width="1859"
     inkscape:window-height="1048"
     id="namedview8"
     showgrid="false"
     inkscape:zoom="0.22627417"
     inkscape:cx="444.93204"
     inkscape:cy="1024"
     inkscape:window-x="-8"
     inkscape:window-y="-3"
     inkscape:window-maximized="1"
     inkscape:current-layer="svg2" />
  <g
     transform="scale(1 -1) translate(0 -1280)"
     id="g4">
    <path
       style="fill:#000000"
       d="M 1024 256 C 884.66667 256 756.16667 290.3333 638.5 359 C 520.83333 427.6667 427.66667 520.8333 359 638.5 C 290.33333 756.16667 256 884.66667 256 1024 C 256 1163.3333 290.33333 1291.8333 359 1409.5 C 427.66667 1527.1667 520.83333 1620.3333 638.5 1689 C 756.16667 1757.6667 884.66667 1792 1024 1792 C 1163.3333 1792 1291.8333 1757.6667 1409.5 1689 C 1527.1667 1620.3333 1620.3333 1527.1667 1689 1409.5 C 1757.6667 1291.8333 1792 1163.3333 1792 1024 C 1792 884.66667 1757.6667 756.16667 1689 638.5 C 1620.3333 520.8333 1527.1667 427.6667 1409.5 359 C 1291.8333 290.3333 1163.3333 256 1024 256 z M 1024 384 C 1110.6667 384 1193.5 401 1272.5 435 C 1351.5 469 1419.5 514.5 1476.5 571.5 C 1533.5 628.5 1579 696.5 1613 775.5 C 1647 854.5 1664 937.33333 1664 1024 C 1664 1110.6667 1647 1193.5 1613 1272.5 C 1579 1351.5 1533.5 1419.5 1476.5 1476.5 C 1419.5 1533.5 1351.5 1579 1272.5 1613 C 1193.5 1647 1110.6667 1664 1024 1664 C 937.33333 1664 854.5 1647 775.5 1613 C 696.5 1579 628.5 1533.5 571.5 1476.5 C 514.5 1419.5 469 1351.5 435 1272.5 C 401 1193.5 384 1110.6667 384 1024 C 384 937.33333 401 854.5 435 775.5 C 469 696.5 514.5 628.5 571.5 571.5 C 628.5 514.5 696.5 469 775.5 435 C 854.5 401 937.33333 384 1024 384 z M 768 640 C 732.66667 640 702.5 652.5 677.5 677.5 C 652.5 702.5 640 732.66667 640 768 C 640 803.33333 652.5 833.5 677.5 858.5 C 702.5 883.5 732.66667 896 768 896 C 803.33333 896 833.5 883.5 858.5 858.5 C 883.5 833.5 896 803.33333 896 768 C 896 732.66667 883.5 702.5 858.5 677.5 C 833.5 652.5 803.33333 640 768 640 z M 1280 640 C 1244.6667 640 1214.5 652.5 1189.5 677.5 C 1164.5 702.5 1152 732.66667 1152 768 C 1152 803.33333 1164.5 833.5 1189.5 858.5 C 1214.5 883.5 1244.6667 896 1280 896 C 1315.3333 896 1345.5 883.5 1370.5 858.5 C 1395.5 833.5 1408 803.33333 1408 768 C 1408 732.66667 1395.5 702.5 1370.5 677.5 C 1345.5 652.5 1315.3333 640 1280 640 z M 861.59375 1092.8438 C 857.02237 1092.8438 852.98518 1094.6086 849.46875 1098.125 L 772.46875 1175.125 C 768.95232 1178.6414 767.1875 1182.7099 767.1875 1187.2812 C 767.1875 1191.8526 767.98705 1197.251 772.46875 1199.4062 L 922.71875 1271.6562 L 770.46875 1343.9375 C 765.97606 1346.0697 765.1875 1351.4911 765.1875 1356.0625 C 765.1875 1360.6339 766.95232 1364.6711 770.46875 1368.1875 L 847.46875 1445.1875 C 850.98518 1448.7039 855.02237 1450.4688 859.59375 1450.4688 C 864.16513 1450.4688 867.25731 1447.3197 871.75 1445.1875 L 1024 1372.9375 L 1182.25 1445.1875 C 1186.7737 1447.253 1189.8349 1450.4688 1194.4062 1450.4688 C 1198.9776 1450.4687 1203.0148 1448.7039 1206.5312 1445.1875 L 1283.5312 1368.1875 C 1287.0477 1364.6711 1288.8125 1360.6339 1288.8125 1356.0625 C 1288.8125 1351.4911 1288.0549 1346.003 1283.5312 1343.9375 L 1125.2812 1271.6562 L 1279.5312 1199.4062 C 1284.0347 1197.2967 1284.8125 1191.8526 1284.8125 1187.2812 C 1284.8125 1182.7099 1283.0477 1178.6414 1279.5312 1175.125 L 1202.5312 1098.125 C 1199.0148 1094.6086 1194.9776 1092.8438 1190.4062 1092.8438 C 1185.8349 1092.8438 1182.7534 1096.0155 1178.25 1098.125 L 1024 1170.375 L 873.75 1098.125 C 869.2683 1095.9697 866.16513 1092.8438 861.59375 1092.8438 z "
       transform="matrix(1,0,0,-1,-256,1664)"
       id="path6" />
  </g>
  <g
     transform="matrix(0.28242954,0,0,-0.28242954,533.01857,1083.8057)"
     id="g4-7" />
  <g
     transform="matrix(0.89326685,0,0,-0.89326685,-3437.3187,1033.006)"
     id="g4-0" />
</svg>
